X: 1
T: Pay The Girl Her Fourpence
M: 4/4
L: 1/8
R: reel
K: Gmaj
ge|:dB (3BcB dBGB|dBGB (3gag fe|dB (3BcB dBGB|ge (3fed eage|
dB (3BcB dBGB|d2 dB dega|bagb agfa|1gefd eage:|2gefd e2ef||
g2bg faaf|gef/e/d edBd|g2bg faaf|gefd edef|
gbbg fg a/g/f|gefd edfa|g2ge fefg|1afdf e2ef:|2afdf e4||
